X:131
T:Trip to Cottingham. Le4.131
M:6/8
L:1/8
N:Key Sig not clear. Could be D.
Q:1/4=100
B:L.Leadley MS#4 c1850
Z:Village Music Project, 2016 Ruairidh Greig
K:G
GdB GdB|Adc Adc|Bdg gfg|baa"dot added"a3|
GdB GdB|Adc Adc|Bdg bga|gggg3:|
|:b3g3|aaaa3|c'3f3|gggg3|
b3g3|aaaa3|c'3f3|gggg3:|
d3cBc|d3cBc|d2Bg2d|bag fed|
c3BAB|c3BAB|ced cBA|GGG"dot added"G3:|

